Origami/16x16/apps/easystroke.svg

<svg width="16" height="16" version="1.1" viewBox="0 0 16 16" xmlns="http://www.w3.org/2000/svg">
 <path d="m8 0a8 8 0 0 0 -8 8 8 8 0 0 0 8 8 8 8 0 0 0 8 -8 8 8 0 0 0 -8 -8z" style="fill:#4347dc"/>
 <path d="m4.7616831 7.328c4.1461876-1.616556 9.0404629-0.7317058 8.7455079 2.467432-0.105553 1.144848-1.491876 1.842851-2.682382 1.697136-2.0258052-0.247954-4.8710635-2.0700474-5.6332347-3.4892502-0.8968368-1.6699572-0.4814-5.3832084 2.0484904-5.5050015 1.7795936 0.1237767 2.295964 1.6297375 2.5218912 2.7028999 0.8973281 4.2623364-3.8109884 8.9223618-6.4861584 6.7515868-1.7486721-1.418966-0.29046-3.8924078 1.4858856-4.624803z" style="fill:none;stroke:#81ff86"/>
</svg>

<svg xmlns="http://www.w3.org/2000/svg" width="16" height="16" version="1.1" viewBox="0 0 16 16">
 <path style="fill:#4347dc" d="M 8,0 A 8,8 0 0 0 0,8 8,8 0 0 0 8,16 8,8 0 0 0 16,8 8,8 0 0 0 8,0 Z"/>
 <path style="fill:none;stroke:#81ff86" d="M 4.7616831,7.328 C 8.9078707,5.711444 13.802146,6.5962942 13.507191,9.795432 13.401638,10.94028 12.015315,11.638283 10.824809,11.492568 8.7990038,11.244614 5.9537455,9.4225206 5.1915743,8.0033178 4.2947375,6.3333606 4.7101743,2.6201094 7.2400647,2.4983163 9.0196583,2.622093 9.5360287,4.1280538 9.7619559,5.2012162 10.659284,9.4635526 5.9509675,14.123578 3.2757975,11.952803 1.5271254,10.533837 2.9853375,8.0603952 4.7616831,7.328 Z"/>
</svg>
